X: 42901
T: Will You Come Down To Limerick
R: slip jig
M: 9/8
K: Gmajor
d|cAG GDG G2d|cAG GDE =F2d|cAG GDG GAG|FAd fed cAd|
cAG GDG G2d|cAG GDE =F2d|cAG GDG GAG|FAd fed cAF||
def gaf g2f|def gag fed|cde =fge f2e|cde =fed cA^F|
def gaf g2f|def gag fga|bgb afa g2e|fed cAG FGA||
BGB AFA ~G3|~B3 GBd cAF|BGB AFA GAG|FAd fed cAG|
BGB AFA ~G3|~B3 GBd cAF|DBB DAA ~G3|FAd fed cAd||
cAG GDG G3||

